icon-svg/pool-electric-lvl.svg

<svg xmlns="http://www.w3.org/2000/svg" fill="#44739e" viewBox="0 0 24 24"><path d="M8.178 17.078h1.279v-1.539H8.178Zm.922 1.075h.358v-.86h-1.28q0 .86.922.86m-.922-3.688v.859h1.279v-.859h-.358Zm1.523 2.828h1.805v.859H9.701Zm-3.995 0h1.805v.859H5.706Zm-.606.86h.358v-.86H4.183q0 .86.917.86m-.917-1.075h1.279v-1.539H4.183Zm1.523-.769v.429h1.805v-.859H5.706Zm-1.523-.985h1.279v-.859H5.1q-.917 0-.917.859m1.523-.859h1.805v.859H5.706ZM14.654 2a58.15 58.15 0 0 0-5.9 9.192 5.456 5.456 0 1 0 2.466 9.516 6.9 6.9 0 0 0 2.687.867 6.05 6.05 0 0 0 .773.038 6.913 6.913 0 0 0 6.932-6.892v-.063c0-3-4.57-9.558-6.958-12.658M7.7 21.227a4.683 4.683 0 1 1 4.683-4.683A4.683 4.683 0 0 1 7.7 21.227m10.118-9.269-3.443 7.56.867-6.368c.057-.413-.2-.79-.526-.772l-2.256.122c-.387.021-.654-.5-.482-.948l2.374-6.148.121 5.07a.589.589 0 0 0 .534.639l2.34-.143c.406-.023.679.542.47.988z"/></svg>

<?xml version="1.0" encoding="UTF-8"?>
<svg width="24px" fill="#44739e" height="24px" viewBox="0 0 24 24" version="1.1" xmlns="http://www.w3.org/2000/svg" xmlns:xlink="http://www.w3.org/1999/xlink">
            <path d="M 8.178,17.078 H 9.457 V 16.201 15.539 H 8.178 Z M 9.1,18.153 h 0.358 v -0.86 h -1.28 q 0,0.86 0.922,0.86 z M 8.178,14.465 v 0.859 H 9.457 V 14.465 H 9.099 Z m 1.5230002,2.827999 H 11.506 v 0.859 H 9.7010002 Z m -3.9950003,0 h 1.8049999 v 0.859 H 5.7059999 Z M 5.1,18.153 h 0.358 v -0.86 H 4.183 q 0,0.86 0.917,0.86 z M 4.183,17.078 H 5.462 V 16.201 15.539 H 4.183 Z m 1.523,-0.769 v 0.429 H 7.511 V 15.879 H 5.706 Z M 4.183,15.324 H 5.462 V 14.465 H 5.1 q -0.917,0 -0.917,0.859 z m 1.5229999,-0.859 h 1.8049999 v 0.859 H 5.7059999 Z M 14.654,2 a 58.146,58.146 0 0 0 -5.9,9.192 5.456,5.456 0 1 0 2.466,9.516 6.9,6.9 0 0 0 2.687,0.867 6.046,6.046 0 0 0 0.773,0.038 6.913,6.913 0 0 0 6.932,-6.892 v 0 -0.063 c 0,-3 -4.57,-9.558 -6.958,-12.658 z M 7.7,21.227 A 4.683,4.683 0 1 1 12.383,16.544 4.683,4.683 0 0 1 7.7,21.227 Z m 10.118,-9.269 -3.443,7.56 0.867,-6.368 c 0.057,-0.413 -0.2,-0.79 -0.526,-0.772 L 12.46,12.5 C 12.073,12.521 11.806,12 11.978,11.552 l 2.374,-6.148 0.121,5.07 a 0.589,0.589 0 0 0 0.534,0.639 v 0 l 2.34,-0.143 c 0.406,-0.023 0.679,0.542 0.47,0.988 z"/>

</svg>
